!!!OTL: Der Maedchenmoerder (Halewijn - Ulinger).
!!!OTL-incipit: Es ritte ein Ritter ueber Berg und Tal,
!!!ARE: Europa, Mitteleuropa, Deutschland (BRD), Nord - Baden
!!!YOR: 2, S. 112
!!    1914 aufgezeichnet
!!!SCT: Q0041U
!!!TXL: @@DE
!!!YEM: Copyright 1995, estate of Helmut Schaffrath.
**kern	**text
*ICvox	*
*M6/8	*
*k[f#]	*
*G:	*
!LO:TX:a:t=Zu b: 55 Nordbaden 1914.	!
{16gL	Es
16bJ	.
=1	=1
8dd	rit-
8ee	-te
8dd	ein
8b	Rit-
8a	-ter
16b	über
16b	.
=2	=2
4dd	Berg
8cc	und
4a}	Tal,
{8a	ein
=3	=3
8cc	Ritter
8cc	.
8cc	von
8dd	ſchöner
8dd	.
8cc	Ge-
=4	=4
[4.b	-ſtalt;
4b]}	.
{8dd	der
=5	=5
8.dd	konn-
16cc	-te
8b	ſo
8b	wun-
8cc	-der-
8dd	-ſchön
=6	=6
8.eeL	ſin-
16ff#	.
8ggJ	.
8ggL	-gen
8ff#J}	.
{8ee	ein
=7	=7
8.dd	Liedlein
16b	.
8b	von
8.dd	drei-
16a	-er-
8a	-lei
=8	=8
(4cc	Stim-
8dd)	.
4b}	-men.
{8dd	der
=9	=9
8.dd	konn-
16cc	-te
8b	ſo
8b	wun-
8cc	-der-
8dd	-ſchön
=10	=10
8.eeL	ſin-
16ff#	.
8ggJ	.
8ggL	-gen
8ff#J}	.
{8ee	ein
=11	=11
8.dd	Liedlein
16b	.
8b	von
8.dd	drei-
16a	-er-
8a	-lei
=12	=12
(4cc	Stim-
8dd)	.
4b}	-men.
==	==
!!!AGN: Ballade, Verfuehrung, Mord, Mordversuch bzw. Rache
!!!ONB: ESAC (Essen Associative Code) Database: BALLADE
!!!AMT: compound duple
!!!AIN: vox
!!!EED: Helmut Schaffrath
!!!EEV: 1.0
!!!source: Deutsche Volkslieder mit ihren Melodien. Herausgegeben vom Deutschen Volksliedarchiv. Zweiter Band Balladen. Berlin 1939.
!!!page: 112
!!!ENC: Anna Maria Matuszewska
!!!EEV: 2025/02/17
*-	*-
